24x24/apps/deepin-manual.svg

<svg xmlns="http://www.w3.org/2000/svg" width="24" height="24" version="1.1">
 <path style="fill:#009688" d="m4 2h16c0.554 0 1 0.446 1 1v18c0 0.554-0.446 1-1 1h-16c-0.554 0-1-0.446-1-1v-18c0-0.554 0.446-1 1-1z"/>
 <path style="opacity:.2" d="m4 2c-0.554 0-1 0.446-1 1v18c0 0.9625 1 1 1 1h2v-20z"/>
 <path style="opacity:.2;fill:#f4f4f7" d="m4 2c-0.554 0-1 0.446-1 1v0.5c0-0.554 0.446-1 1-1h16c0.554 0 1 0.446 1 1v-0.5c0-0.554-0.446-1-1-1z"/>
 <path style="opacity:.2" d="m3 21v0.5c0 0.554 0.446 1 1 1h16c0.554 0 1-0.446 1-1v-0.5c0 0.554-0.446 1-1 1h-16c-0.554 0-1-0.446-1-1z"/>
 <path style="opacity:0.2" d="m 17.00099,12.498569 c -0.002,1.35061 -0.77998,2.57983 -2.0003,3.158661 V 22.5 H 12.000261 V 15.65625 C 10.780319,15.07757 10.001927,13.848825 10,12.498569 10.002,11.148317 10.780319,9.9195754 12.000261,9.3408968 V 12.498569 H 15.00069 V 9.3399167 c 1.22032,0.5788309 1.99875,1.8080473 2.0003,3.1586523 z"/>
 <path style="fill:#f4f4f7" d="m 17.00099,11.998569 c -0.002,1.35061 -0.77998,2.57983 -2.0003,3.158661 V 22 H 12.000261 V 15.15625 C 10.780319,14.57757 10.001927,13.348825 10,11.998569 10.002,10.648317 10.780319,9.4195754 12.000261,8.8408968 V 11.998569 H 15.00069 V 8.8399167 c 1.22032,0.5788309 1.99875,1.8080473 2.0003,3.1586523 z"/>
</svg>

<svg xmlns="http://www.w3.org/2000/svg" width="24" height="24"><path style="fill:#009688" d="M4 2h16c.554 0 1 .446 1 1v18c0 .554-.446 1-1 1H4c-.554 0-1-.446-1-1V3c0-.554.446-1 1-1z"/><path style="opacity:.2" d="M4 2c-.554 0-1 .446-1 1v18c0 .963 1 1 1 1h2V2z"/><path style="opacity:.2;fill:#f4f4f7" d="M4 2c-.554 0-1 .446-1 1v.5c0-.554.446-1 1-1h16c.554 0 1 .446 1 1V3c0-.554-.446-1-1-1z"/><path style="opacity:.2" d="M3 21v.5c0 .554.446 1 1 1h16c.554 0 1-.446 1-1V21c0 .554-.446 1-1 1H4c-.554 0-1-.446-1-1z"/><path style="opacity:.2" d="M17.001 12.499a3.501 3.501 0 0 1-2 3.158V22.5h-3v-6.844A3.5 3.5 0 0 1 10 12.5a3.5 3.5 0 0 1 2-3.158v3.158h3v-3.16a3.5 3.5 0 0 1 2.001 3.16z"/><path style="fill:#f4f4f7" d="M17.001 11.999a3.501 3.501 0 0 1-2 3.158V22h-3v-6.844A3.5 3.5 0 0 1 10 12a3.5 3.5 0 0 1 2-3.158v3.158h3v-3.16A3.5 3.5 0 0 1 17.002 12z"/></svg>
